icons/ribbon.svg

<svg width="48" height="48" viewBox="0 0 48 48" fill="none" xmlns="http://www.w3.org/2000/svg">
<path fill-rule="evenodd" clip-rule="evenodd" d="M26.9238 4C27.8914 4 28.7899 4.21665 29.5913 4.67461C30.276 5.06587 31.0533 5.60468 31.628 6.40924L31.6156 6.41808L31.6269 6.4332L33.9585 9.45545L34.7795 10.5502C37.3105 13.8928 37.31 18.5471 34.7781 21.8893L30.2702 27.7084L37.2191 36.6521C37.8623 37.4799 37.7572 38.6639 36.9781 39.3654L32.9122 43.0268C32.0516 43.8018 30.7148 43.6861 30.0001 42.7749L24.2094 35.3917L18.3652 42.843C17.6916 43.7019 16.4538 43.862 15.5838 43.2029L11.2054 39.8859C10.3155 39.2118 10.1498 37.9398 10.8372 37.0602L18.1511 27.7016L13.6469 21.9878L13.641 21.98C11.109 18.6379 11.1085 13.9837 13.6394 10.641L13.641 10.639L14.4523 9.55709L16.7887 6.52844C16.8241 6.48089 16.8604 6.43373 16.8975 6.38697C18.0073 4.84975 19.8517 4 21.6762 4H26.9238ZM28.5991 6.4111C29.1501 6.726 29.6182 7.07086 29.9466 7.49896L29.932 7.51045L30.0321 7.64017C31.076 9.05028 31.0686 11.0297 30.0099 12.4317C29.0758 11.862 27.965 11.5093 26.8334 11.5093H21.5857C20.4634 11.5093 19.3185 11.8099 18.3446 12.4333C17.8617 11.7462 17.6095 10.8772 17.6095 10.0667C17.6095 9.25167 17.8658 8.43472 18.3832 7.73584L18.4982 7.5867L18.5089 7.57171C19.2104 6.58966 20.4332 6 21.6762 6H26.9238C27.5847 6 28.1338 6.14525 28.5991 6.4111ZM19.574 14.0266L24.1743 19.9687L28.7743 14.0271C28.1756 13.7019 27.496 13.5093 26.8334 13.5093H21.5857C20.8665 13.5093 20.1664 13.6876 19.574 14.0266ZM28.9964 26.0871L25.4438 21.5961L31.5099 13.7607C32.1353 12.9766 32.535 12.0671 32.709 11.1228L33.1838 11.7559C35.1741 14.3831 35.1752 18.049 33.187 20.6774L28.9964 26.0871ZM19.4258 29.3185L12.4131 38.2918L16.7915 41.6087L22.9373 33.7729L19.4258 29.3185ZM16.9091 13.8515C16.2873 13.0717 15.8932 12.14 15.717 11.2043L15.2381 11.8429L15.2352 11.8467C13.2457 14.4728 13.2438 18.1368 15.2295 20.7648L24.9963 33.1543L31.5738 41.5406L35.6398 37.8792L28.2204 28.3299L23.4252 22.2681L16.9091 13.8515Z" fill="black"/>
</svg>

<svg
  xmlns="http://www.w3.org/2000/svg"
  width="24"
  height="24"
  viewBox="0 0 24 24"
  fill="none"
  stroke="currentColor"
  stroke-width="2"
  stroke-linecap="round"
  stroke-linejoin="round"
>
  <path
    fill-rule="evenodd"
    d="M26.924 4c.967 0 1.866.217 2.667.675.685.39 1.462.93 2.037 1.734l-.012.01.01.014 2.332 3.022.822 1.095a9.414 9.414 0 0 1-.002 11.34l-4.508 5.818 6.95 8.944a2 2 0 0 1-.242 2.713l-4.066 3.662A2 2 0 0 1 30 42.775l-5.79-7.383-5.845 7.451a2 2 0 0 1-2.781.36l-4.379-3.317a2 2 0 0 1-.368-2.826l7.314-9.358-4.504-5.714-.006-.008a9.414 9.414 0 0 1-.002-11.339l.002-.002.811-1.082 2.337-3.029.108-.141C18.008 4.85 19.853 4 21.678 4zm1.675 2.411c.551.315 1.02.66 1.348 1.088l-.015.011.1.13a4.03 4.03 0 0 1-.022 4.792c-.934-.57-2.045-.923-3.177-.923h-5.247c-1.123 0-2.267.3-3.241.924a4.2 4.2 0 0 1-.735-2.366c0-.815.256-1.632.773-2.331l.115-.15.01-.014C19.21 6.59 20.434 6 21.677 6h5.248c.66 0 1.21.145 1.675.411m-9.025 7.616 4.6 5.942 4.6-5.942c-.598-.325-1.278-.518-1.94-.518h-5.248c-.72 0-1.42.179-2.012.518m9.422 12.06-3.552-4.49 6.066-7.836a5.95 5.95 0 0 0 1.199-2.638l.475.633a7.415 7.415 0 0 1 .003 8.921zm-9.57 3.232-7.013 8.973 4.378 3.317 6.146-7.836zm-2.517-15.467a6.06 6.06 0 0 1-1.192-2.648l-.479.639-.003.004a7.414 7.414 0 0 0-.005 8.918l9.766 12.39 6.578 8.386 4.066-3.662-7.42-9.55-4.795-6.06z"
    clip-rule="evenodd"
  />
</svg>
